!!!COM: Gesualdo, Carlo
!!!CDT:
!!!PTL: Il primo libro de madrigali a cinque voci
!!!PPP: Ferrara
!!!PPR: Baldini
!!!PDT: 1594
!!!RISM: G 1721
!!!rime: 560
!!!OTL: Tarquinia, se rimiri
!!!AGN: Madrigal
!!!SCT: Trm0560i
!!!SCA: Trm0560i
!!!voices: 5
**kern	**text	**kern	**text	**kern	**text	**kern	**text	**kern	**text
*part5	*part5	*part4	*part4	*part3	*part3	*part2	*part2	*part1	*part1
*staff5	*staff5	*staff4	*staff4	*staff3	*staff3	*staff2	*staff2	*staff1	*staff1
*I"Basso	*	*I"Tenore	*	*I"Quinto	*	*I"Alto	*	*I"Canto	*
*I'B	*	*I'T	*	*I'V	*	*I'A	*	*I'C	*
*oclefF3	*	*oclefC3	*	*oclefC2	*	*oclefC1	*	*oclefG2	*
*clefF4	*	*clefGv2	*	*clefG2	*	*clefG2	*	*clefG2	*
*k[]	*	*k[]	*	*k[]	*	*k[]	*	*k[]	*
*omet(C)	*	*omet(C)	*	*omet(C)	*	*omet(C)	*	*omet(C)	*
*M4/2	*	*M4/2	*	*M4/2	*	*M4/2	*	*M4/2	*
=1	=1	=1	=1	=1	=1	=1	=1	=1	=1
0r	.	2A	Men-	2a	Men-	2cc	Men-	2ee	Men-
.	.	2c#X	-tre,	2e	-tre,	2a	-tre,	2ee	-tre,
.	.	4d	mia	4a	mia	4a	mia	4ff#X	mia
.	.	2G	stel-	2b	stel-	2dd	stel-	2gg	stel-
.	.	4cnXi	-la,	4a	-la,	4cc	-la,	4ee	-la,
=2	=2	=2	=2	=2	=2	=2	=2	=2	=2
1r	.	2e	mi-	2g#X	mi-	2b	mi-	2ee	mi-
.	.	2e	-ri	2g#i	-ri	4b	-ri	2ee	-ri
.	.	.	.	.	.	4b	I	.	.
2r	.	2r	.	4r	.	8ccL	bei	1r	.
.	.	.	.	.	.	8a	ce-	.	.
.	.	.	.	4e	I	8cc	-le-	.	.
.	.	.	.	.	.	8bJ	-sti	.	.
4r	.	4r	.	8fL	bei	4a	gi-	.	.
.	.	.	.	8d	ce-	.	.	.	.
4A	I	4c	I	8f	-le-	4a	-ri,	.	.
.	.	.	.	8eJ	-sti	.	.	.	.
=3	=3	=3	=3	=3	=3	=3	=3	=3	=3
8B-XL	bei	8dL	bei	1d	gi-	1r	.	2r	.
8G	ce-	8B	ce-	.	.	.	.	.	.
8B-i	-le-	8d	-le-	.	.	.	.	.	.
8AJ	-sti	8cJ	-sti	.	.	.	.	.	.
2G	gi-	2B	gi-	.	.	.	.	4r	.
.	.	.	.	.	.	.	.	4dd	I
2C	-ri,	2c	-ri,	2g	-ri,	4r	.	8eeL	bei
.	.	.	.	.	.	.	.	8cc	ce-
.	.	.	.	.	.	4g	I	8ee	-le-
.	.	.	.	.	.	.	.	8ddJ	-sti
2r	.	4r	.	4r	.	8aL	bei	4cc	gi-
.	.	.	.	.	.	8f	ce-	.	.
.	.	4c	I	4e	I	8a	-le-	4cc	-ri,
.	.	.	.	.	.	8gJ	-sti	.	.
=4	=4	=4	=4	=4	=4	=4	=4	=4	=4
1r	.	8dL	bei	8fL	bei	8fL	gi-	1r	.
.	.	8B-X	ce-	8d	ce-	8gJ	.	.	.
.	.	8d	-le-	8f	-le-	2a	.	.	.
.	.	8cJ	-sti	8eJ	-sti	.	.	.	.
.	.	2B-X	gi-	2d	gi-	.	.	.	.
.	.	.	.	.	.	4g	.	.	.
2r	.	2A	-ri,	2e	-ri,	2a	-ri,	2r	.
2D	Men-	[2A	Men-	2d	Men-	2a	Men-	2ff	Men-
=5	=5	=5	=5	=5	=5	=5	=5	=5	=5
2F#X	-tre,	4A]	.	2d	-tre,	2a	-tre,	2dd	-tre,
.	.	4A	-tre,	.	.	.	.	.	.
4G	mia	2G	mia	4d	mia	4b	mia	4dd	mia
2C	stel-	.	.	2e	stel-	2cc	stel-	2gg	stel-
.	.	4c	stel-	.	.	.	.	.	.
4FnXi	-la,	4d	-la,	4A	-la,	4a	-la,	4ff	-la,
2A	mi-	2c#X	mi-	2e	mi-	2a	mi-	2ee	mi-
=6	=6	=6	=6	=6	=6	=6	=6	=6	=6
2A	-ri	2c#X	-ri	2e	-ri	2a	-ri	4ee	-ri
.	.	.	.	.	.	.	.	4ee	I
2r	.	2r	.	4r	.	4r	.	8ddL	bei
.	.	.	.	.	.	.	.	8ff	ce-
.	.	.	.	4g	I	4b	I	8dd	-le-
.	.	.	.	.	.	.	.	8eeJ	-sti
2r	.	2r	.	8fL	bei	8aL	bei	2ff	gi-
.	.	.	.	8a	ce-	8cc	ce-	.	.
.	.	.	.	8f	-le-	8a	-le-	.	.
.	.	.	.	8gJ	-sti	8bJ	-sti	.	.
4r	.	4r	.	4a	gi-	4cc	gi-	2ee	-ri
4c	I	4e	I	4g	-ri,	4cc	-ri,	.	.
=7	=7	=7	=7	=7	=7	=7	=7	=7	=7
8BL	bei	8dL	bei	4r	.	1r	.	2r	.
8d	ce-	8f	ce-	.	.	.	.	.	.
8B	-le-	8d	-le-	4g	I	.	.	.	.
8cJ	-sti	8eJ	-sti	.	.	.	.	.	.
2d	gi-	2f	gi-	8fL	bei	.	.	4r	.
.	.	.	.	8a	ce-	.	.	.	.
.	.	.	.	8f	-le-	.	.	4dd	I
.	.	.	.	8gJ	-sti	.	.	.	.
4.A	-ri,	4e	-ri,	8aL	gi-	4r	.	8ccL	bei
.	.	.	.	16gL	.	.	.	8ee	ce-
.	.	.	.	16fJJ	.	.	.	.	.
.	.	4A	I	8eL	.	4a	I	8cc	-le-
8F	I	.	.	8fJ	.	.	.	8ddJ	-sti
8EL	bei	4B	bei	[2g	.	8gL	bei	2ee	gi-
8G	ce-	.	.	.	.	8b	ce-	.	.
8E	-le-	4c	ce-	.	.	8g	-le-	.	.
8FJ	-sti	.	.	.	.	8aJ	-sti	.	.
=8	=8	=8	=8	=8	=8	=8	=8	=8	=8
2G	gi-	4B	-le-	2g]	.	4b	gi-	8ddL	-ri,
.	.	.	.	.	.	.	.	8gg	ce-
.	.	4e	-sti	.	.	2cc	.	8ee	-le-
.	.	.	.	.	.	.	.	8ffJ	-sti
2G	-ri,	2d	gi-	2g	-ri,	.	.	2gg	gi-
.	.	.	.	.	.	4b	.	.	.
2r	.	2c	-ri,	2r	.	2cc	-ri,	2ee	-ri,
4r	.	4r	.	4r	.	4r	.	4r	.
4E	Il	4G	Il	4g	Il	4cc	Il	4gg	Il
=9	=9	=9	=9	=9	=9	=9	=9	=9	=9
4F	Cie-	4c	Cie-	4f	Cie-	4a	Cie-	4cc	Cie-
4.C	-l’es-	4.c	-l’es-	4.g	-l’es-	4.cc	-l’es-	4.ee	-l’es-
8C	-ser	8G	-ser	8g	-ser	8cc	-ser	8ee	-ser
4BB	vor-	4d	vor-	4g	vor-	4dd	vor-	4gg	vor-
2D	-re-	2d	-re-	2a	-re-	2dd	-re-	2ff#X	-re-
2G	-i:	2d	-i:	2b	-i:	4dd	-i:	2gg	-i:
.	.	.	.	.	.	4d	Per-	.	.
=10	=10	=10	=10	=10	=10	=10	=10	=10	=10
4r	.	2r	.	4r	.	8dL	-ché	2r	.
.	.	.	.	.	.	8d	tu	.	.
4c	Per-	.	.	4e	Per-	8e	ri-	.	.
.	.	.	.	.	.	8fJ	-vol-	.	.
8cL	-ché	4r	.	8eL	-ché	2.g	-ges-	4r	.
8c	tu	.	.	8e	tu	.	.	.	.
8B	ri-	4G	Per-	8d	ri-	.	.	4b	Per-
8AJ	-vol-	.	.	8cJ	-vol-	.	.	.	.
4G	-ges-	8GL	-ché	4B	-ges-	.	.	8bL	-ché
.	.	8G	tu	.	.	.	.	8b	tu
4F	-si	8A	ri-	4A	-si	4c	-si	8cc	ri-
.	.	8BJ	-vol-	.	.	.	.	8ddJ	-vol-
[2E	Fi-	4c	-ges-	2e	Fi-	8gL	Fi-	4ee	-ges-
.	.	.	.	.	.	8eJ	.	.	.
.	.	4A	-si	.	.	[4a	.	4cc	-si
=11	=11	=11	=11	=11	=11	=11	=11	=11	=11
2E]	.	2B	Fi-	1e	-so	4a]	.	2b	Fi-
.	.	.	.	.	.	2g#X	-so	.	.
4E	-so	4e	-so	.	.	.	.	4b	-so
4A	ne	4e	ne	.	.	4a	ne	4cc	ne
4G	gli oc-	4g	gli oc-	1r	.	4b	gli oc-	4dd	gli oc-
4E	-chi	4g	-chi	.	.	4cc	-chi	4ee	-chi
2G	mie-	2g	mie-	.	.	2b	mie-	2dd	mie-
=12	=12	=12	=12	=12	=12	=12	=12	=12	=12
2G	-i	2g	-i	2r	.	2b	-i	2dd	-i
2r	.	4d	Le	4f#X	Le	4a	Le	4dd	Le
.	.	4d	tue	4f#i	tue	4b	tue	4dd	tue
1r	.	2c	dol-	2g	dol-	2cc	dol-	2ee	dol-
.	.	4G	-ci	4g	-ci	4b	-ci	4dd	-ci
.	.	4A	fa-	4e	fa-	4a	fa-	4cc#X	fa-
=13	=13	=13	=13	=13	=13	=13	=13	=13	=13
1r	.	2d	-vil-	2f	-vil-	2a	-vil-	2dd	-vil-
.	.	2e	-le,	2e	-le,	2g#X	-le,	2b	-le,
4A	Le	4c#X	Le	4e	Le	4a	Le	1r	.
4A	tue	4c#i	tue	4f	tue	4a	tue	.	.
2G	dol-	2d	dol-	2g	dol-	2b	dol-	.	.
=14	=14	=14	=14	=14	=14	=14	=14	=14	=14
4C	-ci	4e	-ci	4g	-ci	4cc	-ci	1r	.
4D	fa-	4d	fa-	4f#X	fa-	4a	fa-	.	.
2G	-vil-	2d	-vil-	2g	-vil-	2b-X	-vil-	.	.
2A	-le,	2c#X	-le,	2e	-le,	2a	-le,	4r	.
.	.	.	.	.	.	.	.	4ee	Io
2r	.	2r	.	4r	.	2r	.	8ccL	va-
.	.	.	.	.	.	.	.	8a	-gheg-
.	.	.	.	4g	Io	.	.	8dd	-giar’
.	.	.	.	.	.	.	.	8eeJ	po-
=15	=15	=15	=15	=15	=15	=15	=15	=15	=15
2r	.	4r	.	8fL	va-	2r	.	2ff	-tes-
.	.	.	.	8d	-gheg-	.	.	.	.
.	.	4d	Io	8a	-giar’	.	.	.	.
.	.	.	.	8bJ	po-	.	.	.	.
4r	.	8cL	va-	4cc	-tes-	4r	.	2ee	-si,
.	.	8A	-gheg-	.	.	.	.	.	.
4A	Io	8e	-giar’	4a	-si,	4cc	Io	.	.
.	.	8fJ	po-	.	.	.	.	.	.
8GL	va-	4g	-tes-	4r	.	8bL	va-	4r	.
8E	-gheg-	.	.	.	.	8g	-gheg-	.	.
8A	-giar’	4c	-si	4a	Io	8cc	-giar’	4ff	Io
8BJ	po-	.	.	.	.	8ddJ	po-	.	.
4c	-tes-	2r	.	8gL	va-	4ee	-tes-	8eeL	va-
.	.	.	.	8e	-gheg-	.	.	8cc	-gheg-
4A	-si	.	.	8c	-giar’	4ee	-si	8ee	-giar’
.	.	.	.	8dJ	po-	.	.	8ffJ	po-
=16	=16	=16	=16	=16	=16	=16	=16	=16	=16
4G	Mil-	4g	Mil-	4e	-tes-	4b	Mil-	2gg	-tes-
8GL	-le	8gL	-le	4d	-si	8bL	-le	.	.
8GJ	bel-	8gJ	bel-	.	.	8bJ	bel-	.	.
4G	-lez-	4g	-lez-	2r	.	4b	-lez-	2dd	-si
4F#X	-ze	4a	-ze	.	.	4cc	-ze	.	.
2G	tue	2g	tue,	4r	.	4b	tue	4dd	Mil-
.	.	.	.	4g	con	4b	con	8ddL	-le
.	.	.	.	.	.	.	.	8ddJ	bel-
2r	.	2r	.	4f	lu-	4a	lu-	4dd	-lez-
.	.	.	.	4e	-ci	4g	-ci	4ee	-ze
=17	=17	=17	=17	=17	=17	=17	=17	=17	=17
4r	.	0r	.	1g	mil-	4b	mil-	4dd	tue
4E	con	.	.	.	.	8aL	.	4gg	con
.	.	.	.	.	.	8gJ	.	.	.
4D	lu-	.	.	.	.	8aL	.	4ff	lu-
.	.	.	.	.	.	8bJ	.	.	.
4C	-ci	.	.	.	.	2cc	.	4ee	-ci
2G	mil-	.	.	2g	-le,	.	.	2dd	mil-
.	.	.	.	.	.	4b	.	.	.
2C	-le,	.	.	4g	Mil-	2cc	-le,	2ee	-le,
.	.	.	.	8gL	-le	.	.	.	.
.	.	.	.	8gJ	bel-	.	.	.	.
=18	=18	=18	=18	=18	=18	=18	=18	=18	=18
1r	.	4c	Mil-	4g	-lez-	1r	.	4ee	Mil-
.	.	8cL	-le	4a	-ze	.	.	8eeL	-le
.	.	8cJ	bel-	.	.	.	.	8eeJ	bel-
.	.	4c	-lez-	2g	tue,	.	.	4ee	-lez-
.	.	4B	-ze	.	.	.	.	4dd	-ze
4A	Mil-	2c	tue	8r	.	4cc	Mil-	4ee	tue
.	.	.	.	8a	Mil-	.	.	.	.
8AL	-le	.	.	8aL	-le	8ccL	-le	4ff	con
8AJ	bel-	.	.	8aJ	bel-	8ccJ	bel-	.	.
4A	-lez-	2r	.	4a	-lez-	4cc	-lez-	4ee	lu-
4B-X	-ze	.	.	4f	-ze	4dd	-ze	4dd	-ci
=19	=19	=19	=19	=19	=19	=19	=19	=19	=19
4A	tue	4r	.	4a	tue	4cc	tue	4ee	mil-
4F	con	4f	con	4a	con	4dd	con	4a	-le,
4E	lu-	4g	lu-	4g	lu-	8bL	lu-	2r	.
.	.	.	.	.	.	8ccJ	-ci	.	.
4D	-ci	4a	-ci	4f	-ci	2dd	mil-	.	.
2A	mil-	2a	mil-	2e	mil-	.	.	2r	.
.	.	.	.	.	.	4cc#X	.	.	.
2D	-le,	2a	-le,	2f#X	-le,	2dd	-le,	4r	.
.	.	.	.	.	.	.	.	4dd	Io
=20	=20	=20	=20	=20	=20	=20	=20	=20	=20
1r	.	2r	.	4r	.	1r	.	8ccL	va-
.	.	.	.	.	.	.	.	8a	-gheg-
.	.	.	.	4g	Io	.	.	8dd	-giar’
.	.	.	.	.	.	.	.	8eeJ	po-
.	.	4r	.	8fL	va-	.	.	2ff	-tes-
.	.	.	.	8d	-gheg-	.	.	.	.
.	.	4d	Io	8a	-giar’	.	.	.	.
.	.	.	.	8bJ	po-	.	.	.	.
4r	.	8cL	va-	4cc	-tes-	4r	.	2ee	-si,
.	.	8A	-gheg-	.	.	.	.	.	.
4A	Io	8e	-giar’	4a	-si,	4cc	Io	.	.
.	.	8fJ	po-	.	.	.	.	.	.
8GL	va-	4g	-tes-	4r	.	8bL	va-	4r	.
8E	-gheg-	.	.	.	.	8g	-gheg-	.	.
8A	-giar’	4c	-si	4a	Io	8cc	-giar’	4ff	Io
8BJ	po-	.	.	.	.	8ddJ	po-	.	.
=21	=21	=21	=21	=21	=21	=21	=21	=21	=21
4c	-tes-	2r	.	8gL	va-	4ee	-tes-	8eeL	va-
.	.	.	.	8e	-gheg-	.	.	8cc	-gheg-
4A	-si	.	.	8c	-giar’	4ee	-si	8ee	-giar’
.	.	.	.	8dJ	po-	.	.	8ffJ	po-
4G	Mil-	4g	Mil-	4e	-tes-	4b	Mil-	2gg	-tes-
8GL	-le	8gL	-le	4d	-si	8bL	-le	.	.
8GJ	bel-	8gJ	bel-	.	.	8bJ	bel-	.	.
4G	-lez-	4g	-lez-	2r	.	4b	-lez-	2dd	-si
4F#X	-ze	4a	-ze	.	.	4cc	-ze	.	.
2G	tue	2g	tue,	4r	.	4b	tue	4dd	Mil-
.	.	.	.	4g	con	4b	con	8ddL	-le
.	.	.	.	.	.	.	.	8ddJ	bel-
=22	=22	=22	=22	=22	=22	=22	=22	=22	=22
2r	.	0r	.	4f	lu-	4a	lu-	4dd	-lez-
.	.	.	.	4e	-ci	4g	-ci	4ee	-ze
4r	.	.	.	1g	mil-	4b	mil-	4dd	tue
4E	con	.	.	.	.	8aL	.	4gg	con
.	.	.	.	.	.	8gJ	.	.	.
4D	lu-	.	.	.	.	8aL	.	4ff	lu-
.	.	.	.	.	.	8bJ	.	.	.
4C	-ci	.	.	.	.	2cc	.	4ee	-ci
2G	mil-	.	.	2g	-le,	.	.	2dd	mil-
.	.	.	.	.	.	4b	.	.	.
=23	=23	=23	=23	=23	=23	=23	=23	=23	=23
2C	-le,	2r	.	4g	Mil-	2cc	-le,	2ee	-le,
.	.	.	.	8gL	-le	.	.	.	.
.	.	.	.	8gJ	bel-	.	.	.	.
2r	.	4c	Mil-	4g	-lez-	2r	.	4ee	Mil-
.	.	8cL	-le	4a	-ze	.	.	8eeL	-le
.	.	8cJ	bel-	.	.	.	.	8eeJ	bel-
2r	.	4c	-lez-	2g	tue,	2r	.	4ee	-lez-
.	.	4B	-ze	.	.	.	.	4dd	-ze
4A	Mil-	2c	tue,	8r	.	4cc	Mil-	4ee	tue
.	.	.	.	8a	Mil-	.	.	.	.
8AL	-le	.	.	8aL	-le	8ccL	-le	4ff	con
8AJ	bel-	.	.	8aJ	bel-	8ccJ	bel-	.	.
=24	=24	=24	=24	=24	=24	=24	=24	=24	=24
4A	-lez-	0r	.	4a	-lez-	4cc	-lez-	4ee	lu-
4B-X	-ze	.	.	4f	-ze	4dd	-ze	4dd	-ci
4A	tue	.	.	4a	tue	4.cc	tue	4ee	mil-
4F	con	.	.	4a	con	.	.	8aL	-le,
.	.	.	.	.	.	8f	con	8aJ	con
4E	lu-	.	.	4g	lu-	4g	lu-	8bL	lu-
.	.	.	.	.	.	.	.	8ccJ	-ci
4D	-ci	.	.	4f	-ci	4a	-ci	2dd	mil-
2A	mil-	.	.	2e	mil-	2a	mil-	.	.
.	.	.	.	.	.	.	.	4cc#X	.
=25	=25	=25	=25	=25	=25	=25	=25	=25	=25
2D	-le,	2r	.	2a	-le,	2f#X	-le,	2dd	-le,
4G	Mil-	4B	Mil-	4d	Mil-	4g	Mil-	4b	Mil-
8GL	-le	8BL	-le	8dL	-le	8gL	-le	8bL	-le
8GJ	bel-	8BJ	bel-	8dJ	bel-	8gJ	bel-	8bJ	bel-
4G	-lez-	4B	-lez-	4d	-lez-	4g	-lez-	4b	-lez-
4A	-ze	4A	-ze	4c	-ze	4f#X	-ze	4cc	-ze
2G	tue	2B	tue,	2d	tue,	2g	tue	2b	tue
=26	=26	=26	=26	=26	=26	=26	=26	=26	=26
4r	.	4g	Mil-	4e	Mil-	4r	.	1r	.
4C	con	8gL	-le	8eL	-le	4ee	con	.	.
.	.	8gJ	bel-	8eJ	bel-	.	.	.	.
4BB	lu-	4g	-lez-	4e	-lez-	4dd	lu-	.	.
4AA	-ci	4a	-ze	4e	-ze	4cc	-ci	.	.
[1E	mil-	4g	tue	4.e	tue	4b	mil-	4r	.
.	.	4c	con	.	.	4e	.	4ee	con
.	.	.	.	8c	con	.	.	.	.
.	.	4B	lu-	4d	lu-	[2a	.	4dd	lu-
.	.	4A	-ci	4e	-ci	.	.	4cc	-ci
=27	=27	=27	=27	=27	=27	=27	=27	=27	=27
1E]	.	1B	mil-	1e	mil-	4a]	.	1b	mil-
.	.	.	.	.	.	8g#XL	.	.	.
.	.	.	.	.	.	8f#iJ	.	.	.
.	.	.	.	.	.	2g#X	.	.	.
[1AAl	-le.	[1Al	-le.	[1el	-le.	[1al	-le.	[1cc#Xl	-le.
=28	=28	=28	=28	=28	=28	=28	=28	=28	=28
0AA]	.	0A]	.	0e]	.	0a]	.	0cc#]	.
==	==	==	==	==	==	==	==	==	==
*-	*-	*-	*-	*-	*-	*-	*-	*-	*-
!!!system-decoration: [(s1)(s2)(s3)(s4)(s5)]
!!!YEM:	Carlo Gesualdo, “Mentre mia stella miri,” 1594 (Trm0560i; August 2018) Tasso in Music Project (http://www.tassomusic.org) Copyright 2016 Emiliano Ricciardi
!!!RDF**kern: i = editorial accidental
!!!RDF**kern: l = terminal long
!!!ENC: Emiliano Ricciardi
!!!END: 2018
!!!EED: Deutsch, Catherine
!!!EEV: 2018/09/18
!!!YEC: Copyright 2018 Emiliano Ricciardi, All Rights Reserved
!!!ONB: Translated from MusicXML on 2018/09/18 and edited by Craig Stuart Sapp
